production/_assets/svg/icon-cancel.svg

<svg xmlns="http://www.w3.org/2000/svg" width="14" height="14" viewBox="0 0 14 14">
  <g fill="#5C5C5C" fill-rule="evenodd">
    <path d="M12.5,7 C12.5,3.96243388 10.0375661,1.5 7,1.5 C3.96243388,1.5 1.5,3.96243388 1.5,7 C1.5,10.0375661 3.96243388,12.5 7,12.5 C10.0375661,12.5 12.5,10.0375661 12.5,7 Z M0,7 C0,3.13400675 3.13400675,0 7,0 C10.8659932,0 14,3.13400675 14,7 C14,10.8659932 10.8659932,14 7,14 C3.13400675,14 0,10.8659932 0,7 Z"/>
    <rect width="8" height="2" x="3" y="6" transform="rotate(45 7 7)" rx=".5"/>
  </g>
</svg>

<svg xmlns="http://www.w3.org/2000/svg" viewBox="0 0 14 14" enable-background="new 0 0 14 14"><path d="m12.5 7c0-3-2.5-5.5-5.5-5.5s-5.5 2.5-5.5 5.5 2.5 5.5 5.5 5.5 5.5-2.5 5.5-5.5m-12.5 0c0-3.9 3.1-7 7-7s7 3.1 7 7-3.1 7-7 7-7-3.1-7-7"/><path d="m5.2 3.8l4.9 4.9c.2.2.2.5 0 .7l-.7.7c-.2.2-.5.2-.7 0l-4.9-4.9c-.2-.2-.2-.5 0-.7l.7-.7c.2-.2.5-.2.7 0"/></svg>
